X: 1
T: Ian Morrison's
M: 4/4
L: 1/8
R: reel
K: Bmix
b | B2d/2c/2B f2dB | f2fg fecB | A2cA e2cA | e2fe cBBc |
B2d/2c/2B f2dB | f2fg fece | face f2bf | a2ce fBBc |
B2ba b2fa | b2ab affg | a2bf a2ce | a2ba geeg|
face f2af | b2ab affg | afce f2bf | a2ce fBBc |
